X:1
T:Title
%%score 1 { 2 | 3 }
L:1/8
Q:1/4=100
M:4/4
K:G
V:1 treble nm="Grand Piano, Soprano"
V:2 bass nm="Choir Pad, Repent Ye, McGranahan"
V:3 bass 
V:1
 [B,D][B,G] [DB]2 [DB]2 [CA]2 | [DB]>[CA] [B,G]2 [B,G]2 [B,D]2 | [B,G][DB] [Gd]2 [Gd]2 [Dc]2 | %3
w: By~James~McGranahan * * * *|||
 [Dc]2 [DB]6 | [DB]>[Ec] [DB]2 [CA]2 [Ec]2 | [CA]>[DB] [CA]2 [B,G]2 [DB]2 | D>D [CE]2 [EA]2 [DG]2 | %7
w: ||||
 [DF]2 [DG]6 | z z/ G/ G2 .D>B B2 | .G>[=Fd] [^Fd]4 [FB]2 | [FB][FB] [Ec]2 [Gc]2 [Gc]>[GB] | %11
w: ||||
 [Bd]>[GB] [FA]6 | z z/ A/ A2 .E>c c2 | .A>[Ae] [Ae]4 [Ac]2 | DD [Dd]2 [=Fd]>[Fd] [Fd][Fc] | %15
w: ||||
 [DB][DA] [DG]6- | [DG]2 z2 z4 |] %17
w: ||
V:2
 G,G, G,2 G,2 F,2 | F,>F, G,2 D,2 G,2 | D,G, B,2 G,2 F,G, | A,2 G,6 | ^G,>G, A,2 A,2 A,2 | %5
 F,>F, G,2 G,2 G,2 | G,>G, G,2 C2 B,2 | A,2 B,6 | z z/ G,/ G,2 .D,>B, B,2 | %9
 .G,>B, B,4[K:treble] D2 | DD C2 E2 D>D | D>D D6 | z z/[K:bass] A,/ A,2 .E,>C C2 | .A,>C C4 E2 | %14
 D,D, G,2 G,>G, G,G, | F,C B,6- | B,2 z2 z4 |] %17
V:3
 G,,G,, G,,2 B,,2 D,2 | D,>D, G,,2 G,,2 G,,2 | G,,G,, G,,2 B,,2 D,E, | F,2 z2 z4 | E,>E, z2 z4 | %5
 D,>D, z2 z4 | B,,>B,, C,2 C,2 D,2 | D,2 G,,6 | z8 | z z/ G,/ G,4 G,2 | G,G, C,2 C,2 [G,,G,]>G, | %11
 G,>G, D,6 | z8 | z z/ A,/ A,4 A,2 | z C, B,,2 B,,>B,, C,C, | D,D, [G,,G,]6- | [G,,G,]2 z2 z4 |] %17

